ir/border-tr.svg

<svg stroke-width="1.5" viewBox="0 0 24 24" fill="none" xmlns="http://www.w3.org/2000/svg" height="1em" width="1em">
  <path d="M20.0098 20L20.0098 4L4.00977 4" stroke="currentColor" stroke-linecap="round" stroke-linejoin="round"/>
  <path d="M3.99977 8L4.01088 7.99" stroke="currentColor" stroke-linecap="round" stroke-linejoin="round"/>
  <path d="M3.99977 12L4.01088 11.99" stroke="currentColor" stroke-linecap="round" stroke-linejoin="round"/>
  <path d="M3.99977 16L4.01088 15.99" stroke="currentColor" stroke-linecap="round" stroke-linejoin="round"/>
  <path d="M3.99977 20L4.01088 19.99" stroke="currentColor" stroke-linecap="round" stroke-linejoin="round"/>
  <path d="M15.9998 20L16.0109 19.99" stroke="currentColor" stroke-linecap="round" stroke-linejoin="round"/>
  <path d="M11.9998 20L12.0109 19.99" stroke="currentColor" stroke-linecap="round" stroke-linejoin="round"/>
  <path d="M7.99977 20L8.01088 19.99" stroke="currentColor" stroke-linecap="round" stroke-linejoin="round"/>
</svg>

<svg stroke-width="1.5" viewBox="0 0 24 24" fill="none" xmlns="http://www.w3.org/2000/svg" height="1em" width="1em">
  <path d="M20.01 20V4h-16M4 8l.01-.01M4 12l.01-.01M4 16l.01-.01M4 20l.01-.01M16 20l.01-.01M12 20l.01-.01M8 20l.01-.01" stroke="currentColor" stroke-linecap="round" stroke-linejoin="round"/>
</svg>
